app/images/icons/membership-icon.svg

<?xml version="1.0" encoding="UTF-8" standalone="no"?>
<svg width="76px" height="77px" viewBox="0 0 76 77" version="1.1" xmlns="http://www.w3.org/2000/svg" xmlns:xlink="http://www.w3.org/1999/xlink" xmlns:sketch="http://www.bohemiancoding.com/sketch/ns">
    <!-- Generator: Sketch 3.1 (8751) - http://www.bohemiancoding.com/sketch -->
    <title>membership-icon</title>
    <desc>Created with Sketch.</desc>
    <defs></defs>
    <g id="Page-1" stroke="none" stroke-width="1" fill="none" fill-rule="evenodd" sketch:type="MSPage">
        <g id="membership-icon" sketch:type="MSLayerGroup" fill="#1B1A19">
            <path d="M2.57627119,32.2021017 L2.57627119,32.1389831 C2.57627119,30.9268475 3.59389831,29.5743051 4.74033898,29.2522712 L14.1694915,26.7532881 L14.1694915,23.2637288 C15.2257627,23.6231186 16.359322,23.8305085 17.5315254,23.8305085 C18.600678,23.8305085 19.6311864,23.6488814 20.6101695,23.3397288 L20.6101695,26.7532881 L30.2969492,29.240678 C31.340339,29.5485424 32.2033898,30.875322 32.2033898,32.2021017 L2.57627119,32.2021017 L2.57627119,32.2021017 Z M9.06847458,11.9139661 C9.06847458,11.836678 9.08135593,11.7465085 9.08135593,11.6705085 C11.979661,12.6997288 15.9471186,12.3918644 18.9227119,10.2149153 C19.940339,11.3227119 21.3572881,12.055661 22.9932203,12.2888136 C23.3667797,12.3519322 23.7532203,12.3776949 24.1138983,12.3776949 C24.7708475,12.3776949 25.4020339,12.2746441 25.9816949,12.1071864 C25.8786441,17.1695593 22.1301695,21.2542373 17.5315254,21.2542373 C12.8684746,21.2542373 9.06847458,17.0536271 9.06847458,11.9139661 L9.06847458,11.9139661 Z M17.5315254,2.57627119 C21.4345763,2.57627119 24.719322,5.5119322 25.6854237,9.49355932 C25.1186441,9.73830508 24.2813559,9.87871186 23.3667797,9.74989831 C22.5552542,9.62108475 21.0867797,9.20888136 20.2881356,7.72881356 C20.0949153,7.36684746 19.7471186,7.12210169 19.3349153,7.05898305 C18.9355932,7.00616949 18.5362712,7.13627119 18.24,7.41837288 C15.6508475,10.0088136 11.7220339,10.0976949 9.46779661,9.0800678 C10.5627119,5.30583051 13.7572881,2.57627119 17.5315254,2.57627119 L17.5315254,2.57627119 Z M20.4427119,34.779661 L34.779661,34.779661 L34.779661,32.2021017 C34.779661,29.716 33.1566102,27.3844746 30.9667797,26.7532881 L23.1864407,24.756678 L23.1864407,22.116 C26.3938983,20.0433898 28.5579661,16.2421017 28.5579661,11.9139661 C28.5579661,5.34447458 23.6115254,0 17.5315254,0 C11.4515254,0 6.49220339,5.34447458 6.49220339,11.9139661 C6.49220339,16.1132881 8.52745763,19.8231186 11.5932203,21.935661 L11.5932203,24.7708475 L4.05762712,26.7661695 C1.77762712,27.4102373 0,29.7816949 0,32.1389831 L0,34.779661 L20.4427119,34.779661 L20.4427119,34.779661 Z" id="Fill-1665" sketch:type="MSShapeGroup"></path>
            <path d="M61.6630508,32.2021017 L43.7966102,32.2021017 L43.7966102,32.1389831 C43.7966102,30.9268475 44.8142373,29.5743051 45.960678,29.2522712 L55.3898305,26.7532881 L55.3898305,23.2637288 C56.4461017,23.6231186 57.579661,23.8305085 58.7518644,23.8305085 C59.8210169,23.8305085 60.8515254,23.6488814 61.8305085,23.3397288 L61.8305085,26.7532881 L71.5172881,29.240678 C72.560678,29.5485424 73.4237288,30.875322 73.4237288,32.2021017 L61.6630508,32.2021017 L61.6630508,32.2021017 Z M50.2888136,11.9139661 C50.2888136,11.836678 50.3016949,11.7465085 50.3016949,11.6705085 C53.2,12.6997288 57.1674576,12.3918644 60.1430508,10.2149153 C61.160678,11.3227119 62.5776271,12.055661 64.2135593,12.2888136 C64.5871186,12.3519322 64.9735593,12.3776949 65.3342373,12.3776949 C65.9911864,12.3776949 66.6223729,12.2746441 67.2020339,12.1071864 C67.0989831,17.1695593 63.3505085,21.2542373 58.7518644,21.2542373 C54.0888136,21.2542373 50.2888136,17.0536271 50.2888136,11.9139661 L50.2888136,11.9139661 Z M58.7518644,2.57627119 C62.6549153,2.57627119 65.939661,5.5119322 66.9057627,9.49355932 C66.3389831,9.73830508 65.5016949,9.87871186 64.5871186,9.74989831 C63.7755932,9.62108475 62.3071186,9.20888136 61.5084746,7.72881356 C61.3152542,7.36684746 60.9674576,7.12210169 60.5552542,7.05898305 C60.1559322,7.00616949 59.7566102,7.13627119 59.460339,7.41837288 C56.8711864,10.0088136 52.9423729,10.0976949 50.6881356,9.0800678 C51.7830508,5.30583051 54.9776271,2.57627119 58.7518644,2.57627119 L58.7518644,2.57627119 Z M72.1871186,26.7532881 L64.4067797,24.756678 L64.4067797,22.116 C67.6142373,20.0433898 69.7783051,16.2421017 69.7783051,11.9139661 C69.7783051,5.34447458 64.8318644,0 58.7518644,0 C52.6718644,0 47.7125424,5.34447458 47.7125424,11.9139661 C47.7125424,16.1132881 49.7477966,19.8231186 52.8135593,21.935661 L52.8135593,24.7708475 L45.2779661,26.7661695 C42.9979661,27.4102373 41.220339,29.7816949 41.220339,32.1389831 L41.220339,34.779661 L76,34.779661 L76,32.2021017 C76,29.716 74.3769492,27.3844746 72.1871186,26.7532881 L72.1871186,26.7532881 Z" id="Fill-1666" sketch:type="MSShapeGroup"></path>
            <path d="M51.8088136,73.7084068 L21.8983051,73.7084068 L21.8983051,73.3722034 C21.8983051,72.1613559 22.9159322,70.7959322 24.0881356,70.4623051 L33.2725424,67.8473898 L33.2725424,64.3951864 C34.3932203,64.8061017 35.5911864,65.0508475 36.8535593,65.0508475 C38.1030508,65.0508475 39.3138983,64.8061017 40.4345763,64.3951864 L40.4345763,67.8473898 L49.6189831,70.4623051 C50.7783051,70.7959322 51.8088136,72.1613559 51.8088136,73.3722034 L51.8088136,73.7084068 L51.8088136,73.7084068 Z M28.3905085,53.1355932 C28.3905085,53.0583051 28.4033898,52.9823051 28.4033898,52.9050169 C31.3016949,53.9213559 35.2691525,53.6122034 38.2576271,51.4352542 C39.2494915,52.5172881 40.6277966,53.2270508 42.2122034,53.4576271 C42.5728814,53.5091525 42.9335593,53.5477966 43.2942373,53.5477966 C44.0027119,53.5477966 44.6725424,53.4202712 45.3037288,53.2386441 C45.2522034,58.339661 41.4908475,62.4745763 36.8535593,62.4745763 C32.1905085,62.4745763 28.3905085,58.2881356 28.3905085,53.1355932 L28.3905085,53.1355932 Z M36.8535593,43.7966102 C40.7308475,43.7966102 43.9898305,46.6949153 44.9945763,50.6250169 C44.4020339,50.8955254 43.5389831,51.0501017 42.5857627,50.9071186 C41.8,50.8040678 40.3830508,50.3918644 39.6101695,48.9491525 C39.4169492,48.5897627 39.0691525,48.3450169 38.6698305,48.279322 C38.2576271,48.2277966 37.8583051,48.3566102 37.5620339,48.6528814 C34.9857627,51.243322 31.0440678,51.3322034 28.8027119,50.3016949 C29.8847458,46.540339 33.079322,43.7966102 36.8535593,43.7966102 L36.8535593,43.7966102 Z M50.3274576,67.9890847 L43.0108475,65.9010169 L43.0108475,63.0168814 C45.9477966,60.8785763 47.88,57.2447458 47.88,53.1355932 C47.88,46.5673898 42.9335593,41.220339 36.8535593,41.220339 C30.7735593,41.220339 25.8142373,46.5673898 25.8142373,53.1355932 C25.8142373,57.2447458 27.759322,60.8785763 30.6962712,63.0168814 L30.6962712,65.9010169 L23.379661,67.9890847 C21.099661,68.6447458 19.3220339,71.0020339 19.3220339,73.3722034 L19.3220339,76.284678 L54.3850847,76.284678 L54.3850847,73.3722034 C54.3850847,71.0020339 52.5945763,68.6447458 50.3274576,67.9890847 L50.3274576,67.9890847 Z" id="Fill-1667" sketch:type="MSShapeGroup"></path>
        </g>
    </g>
</svg>

<svg width="76" height="77" viewBox="0 0 76 77" xmlns="http://www.w3.org/2000/svg">
    <desc>
        Created with Sketch.
    </desc>
    <g fill="#1B1A19">
        <path d="M2.576 32.202v-.063c0-1.213 1.018-2.566 2.164-2.888l9.43-2.5v-3.488c1.056.36 2.19.567 3.362.567 1.07 0 2.1-.18 3.078-.49v3.413l9.687 2.488c1.043.31 1.906 1.635 1.906 2.962H2.576zm6.492-20.288c0-.077.013-.167.013-.243 2.9 1.03 6.867.722 9.843-1.455 1.017 1.108 2.434 1.84 4.07 2.074.374.062.76.088 1.12.088.658 0 1.29-.103 1.87-.27-.104 5.062-3.853 9.146-8.45 9.146-4.665 0-8.465-4.2-8.465-9.34zm8.464-9.338c3.903 0 7.187 2.936 8.153 6.918-.566.244-1.404.385-2.318.256-.812-.13-2.28-.54-3.08-2.02-.192-.363-.54-.608-.952-.67-.4-.054-.8.076-1.095.358-2.59 2.59-6.518 2.68-8.772 1.662 1.095-3.774 4.29-6.504 8.064-6.504zm2.91 32.204H34.78v-2.578c0-2.486-1.623-4.818-3.813-5.45l-7.78-1.995v-2.64c3.207-2.074 5.37-5.875 5.37-10.203C28.558 5.344 23.613 0 17.533 0S6.492 5.344 6.492 11.914c0 4.2 2.035 7.91 5.1 10.022v2.835L4.06 26.767C1.778 27.41 0 29.782 0 32.14v2.64h20.443z"/>
        <path d="M61.663 32.202H43.797v-.063c0-1.213 1.017-2.566 2.164-2.888l9.43-2.5v-3.488c1.056.36 2.19.567 3.362.567 1.07 0 2.1-.18 3.08-.49v3.413l9.685 2.488c1.044.31 1.907 1.635 1.907 2.962h-11.76zM50.29 11.914c0-.077.012-.167.012-.243 2.898 1.03 6.865.722 9.84-1.455 1.02 1.108 2.436 1.84 4.072 2.074.373.062.76.088 1.12.088.657 0 1.288-.103 1.868-.27-.103 5.062-3.85 9.146-8.45 9.146-4.663 0-8.463-4.2-8.463-9.34zm8.462-9.338c3.903 0 7.188 2.936 8.154 6.918-.567.244-1.404.385-2.32.256-.81-.13-2.28-.54-3.078-2.02-.193-.363-.54-.608-.953-.67-.4-.054-.798.076-1.095.358-2.59 2.59-6.518 2.68-8.772 1.662 1.095-3.774 4.29-6.504 8.064-6.504zm13.435 24.177l-7.78-1.996v-2.64c3.207-2.074 5.37-5.875 5.37-10.203C69.778 5.344 64.833 0 58.753 0s-11.04 5.344-11.04 11.914c0 4.2 2.036 7.91 5.102 10.022v2.835l-7.536 1.996c-2.28.644-4.058 3.016-4.058 5.373v2.64H76v-2.578c0-2.486-1.623-4.818-3.813-5.45z"/>
        <path d="M51.81 73.708H21.897v-.336c0-1.21 1.018-2.576 2.19-2.91l9.185-2.615v-3.452c1.12.41 2.318.656 3.58.656 1.25 0 2.46-.244 3.582-.655v3.452l9.184 2.615c1.158.334 2.19 1.7 2.19 2.91v.336zM28.39 53.136c0-.078.013-.154.013-.23 2.9 1.015 6.866.706 9.855-1.47.99 1.08 2.37 1.79 3.954 2.022.36.05.722.09 1.082.09.71 0 1.38-.128 2.01-.31-.052 5.102-3.813 9.237-8.45 9.237-4.663 0-8.463-4.187-8.463-9.34zm8.464-9.34c3.877 0 7.136 2.9 8.14 6.83-.592.27-1.455.424-2.408.28-.786-.102-2.203-.514-2.976-1.957-.193-.36-.54-.605-.94-.67-.412-.052-.812.077-1.108.373-2.576 2.59-6.518 2.68-8.76 1.65 1.083-3.763 4.277-6.506 8.052-6.506zM50.327 67.99L43.01 65.9v-2.883c2.938-2.138 4.87-5.772 4.87-9.88 0-6.57-4.946-11.917-11.026-11.917s-11.04 5.347-11.04 11.916c0 4.11 1.945 7.743 4.882 9.88v2.885l-7.316 2.09c-2.28.655-4.058 3.012-4.058 5.382v2.913h35.063v-2.913c0-2.37-1.79-4.727-4.058-5.383z"/>
    </g>
</svg>
